proprietary/assets/icons/gebouwen/actieve-gevel.svg

<svg enable-background="new 0 0 64 64" height="64" viewBox="0 0 64 64" width="64" xmlns="http://www.w3.org/2000/svg"><path d="m0 0h64v64h-64z" fill="none"/><path d="m37 8h-32c-1.1 0-2 .9-2 2v47h36v-47c0-1.1-.9-2-2-2zm-23 33h-6v-6h6zm0-10h-6v-6h6zm0-10h-6v-6h6zm10 20h-6v-6h6zm0-10h-6v-6h6zm0-10h-6v-6h6zm10 20h-6v-6h6zm0-10h-6v-6h6zm0-10h-6v-6h6z"/><path d="m41 8h4v49h-4z"/><path d="m52.6 28c-.3.4-.2 1 .2 1.3.2.2.5.3.7.3s.4-.1.5-.2l6.6-5.6c.2-.2.4-.5.4-.8s-.1-.6-.4-.8l-6.6-5.6c-.2-.1-.3-.2-.5-.2-.3 0-.5.1-.7.3-.4.3-.4.9-.1 1.3l1.9 3h-7.6v4h7.5z"/><path d="m55.4 37c.3-.4.2-1-.1-1.3-.2-.2-.5-.3-.7-.3s-.4.1-.5.2l-6.6 5.6c-.4.2-.5.4-.5.8 0 .3.1.6.4.8l6.6 5.6c.2.1.3.2.5.2.3 0 .5-.1.7-.3.4-.3.4-.9.2-1.3l-1.9-3h7.5v-4h-7.5z"/></svg>

<?xml version="1.0" encoding="utf-8"?>
<!-- Generator: Adobe Illustrator 21.0.2, SVG Export Plug-In . SVG Version: 6.00 Build 0)  -->
<!DOCTYPE svg PUBLIC "-//W3C//DTD SVG 1.1//EN" "http://www.w3.org/Graphics/SVG/1.1/DTD/svg11.dtd">
<svg version="1.1" xmlns="http://www.w3.org/2000/svg" xmlns:xlink="http://www.w3.org/1999/xlink" x="0px" y="0px" width="64px"
	 height="64px" viewBox="0 0 64 64" style="enable-background:new 0 0 64 64;" xml:space="preserve">
<style type="text/css">
	.st0{fill:none;}
	.st1{fill:#FFFFFF;}
</style>
<g id="_x36_4px_Box">
	<rect class="st0" width="64" height="64"/>
</g>
<g id="Icon">
	<g>
		<path d="M37,8H5c-1.1,0-2,0.9-2,2v47h36V10C39,8.9,38.1,8,37,8z M14,41H8v-6h6V41z M14,31H8v-6h6V31z M14,21H8v-6h6V21z M24,41h-6
			v-6h6V41z M24,31h-6v-6h6V31z M24,21h-6v-6h6V21z M34,41h-6v-6h6V41z M34,31h-6v-6h6V31z M34,21h-6v-6h6V21z"/>
		<rect x="41" y="8" width="4" height="49"/>
		<path d="M52.6,28c-0.3,0.4-0.2,1,0.2,1.3c0.2,0.2,0.5,0.3,0.7,0.3c0.2,0,0.4-0.1,0.5-0.2l6.6-5.6c0.2-0.2,0.4-0.5,0.4-0.8
			c0-0.3-0.1-0.6-0.4-0.8L54,16.6c-0.2-0.1-0.3-0.2-0.5-0.2c-0.3,0-0.5,0.1-0.7,0.3c-0.4,0.3-0.4,0.9-0.1,1.3l1.9,3H47v4h7.5
			L52.6,28z"/>
		<path d="M55.4,37c0.3-0.4,0.2-1-0.1-1.3c-0.2-0.2-0.5-0.3-0.7-0.3c-0.2,0-0.4,0.1-0.5,0.2l-6.6,5.6C47.1,41.4,47,41.6,47,42
			c0,0.3,0.1,0.6,0.4,0.8l6.6,5.6c0.2,0.1,0.3,0.2,0.5,0.2c0.3,0,0.5-0.1,0.7-0.3c0.4-0.3,0.4-0.9,0.2-1.3l-1.9-3H61v-4h-7.5
			L55.4,37z"/>
	</g>
</g>
</svg>
